public/Images/Scribble1.svg

<svg width="479" height="535" viewBox="0 0 479 535" fill="none" xmlns="http://www.w3.org/2000/svg">
<g clip-path="url(#clip0_82_679)">
<path d="M451.277 317.619C451.626 317.892 452.283 318.171 452.277 318.438C452.177 324.076 455.509 328.78 456.501 334.103C457.626 340.134 458.945 346.119 460.278 352.103C462.289 360.979 463.741 369.973 464.625 379.032C465.482 388.122 466.633 397.204 466.78 406.32C467.069 424.161 464.967 441.684 459.387 458.785C457.572 464.233 455.375 469.546 452.812 474.685C450.169 480.065 446.66 485.199 443.63 490.406C440.949 495.016 437.378 498.706 434.21 502.713C430.88 506.924 426.31 510.231 422.02 513.593C413.181 520.726 402.918 525.883 391.92 528.718C381.927 531.181 371.9 533.518 361.582 534.142C341.634 535.359 321.882 534.008 302.682 528.27C275.565 520.17 251.382 506.497 229.096 489.128C201.651 467.739 180.438 440.685 159.689 413.275C142.859 391.259 124.206 370.699 103.926 351.813C84.7527 333.768 63.2737 318.749 42.5057 302.763C31.7547 294.487 21.7297 285.239 15.0407 273.11C10.0742 264.177 7.20805 254.231 6.65975 244.025C5.91075 230.125 6.17275 216.225 8.57175 202.451C8.75575 201.397 8.56575 200.131 10.0067 199.679C10.1459 199.64 10.2736 199.568 10.3789 199.469C10.4843 199.37 10.5642 199.247 10.612 199.11C10.6598 198.974 10.674 198.828 10.6534 198.685C10.6328 198.541 10.578 198.405 10.4937 198.288C7.46975 194.278 9.13175 189.755 9.34775 185.551C9.92875 174.259 11.3987 163.059 15.0617 152.266C15.3817 151.324 15.4078 150.208 17.2918 149.871C16.2518 157.777 13.0847 165.159 13.1477 173.053C17.1397 151.088 24.4717 130.537 38.2547 112.109C36.1117 113.391 32.6637 117.809 30.9597 120.958C28.1257 126.2 25.0597 131.324 22.4327 136.669C20.8597 139.869 20.0087 143.425 18.6957 146.769C18.3837 147.562 18.3697 149.235 16.9887 148.778C15.6827 148.346 16.3537 146.97 16.7297 146.116C19.9047 138.906 22.4797 131.431 26.3217 124.516C33.0447 112.416 41.6217 101.929 52.8387 93.683C61.2499 87.2841 70.8314 82.5924 81.0437 79.872C94.9337 76.307 107.831 79.351 120.968 82.972C131.875 85.979 141.851 91.581 152.93 94.056C162.78 96.256 172.587 95.814 182.553 94.596C196.178 92.931 208.005 87.236 219.244 79.903C224.165 76.692 228.921 73.229 233.793 69.941C235.172 69.011 236.552 67.282 238.4 69.372C238.49 69.4452 238.596 69.4967 238.71 69.5224C238.823 69.5481 238.941 69.5473 239.055 69.5202C239.168 69.493 239.273 69.4402 239.363 69.3657C239.452 69.2913 239.523 69.1973 239.571 69.091C240.183 67.433 238.884 68.942 238.545 68.526C237.432 67.163 238.693 66.7169 239.39 66.2109C243.764 63.0389 248.184 59.93 252.59 56.8C263.986 48.4961 275.946 40.9944 288.383 34.3489C292.918 31.9939 297.389 29.264 302.448 28.372C303.799 28.134 306.489 26.094 307.618 29.332C308.024 29.0346 308.36 28.6525 308.604 28.2122C308.847 27.7719 308.992 27.2839 309.029 26.782C309.251 25.525 310.168 24.6389 311.405 25.4329C312.405 26.0739 312.778 25.702 313.315 25.043C314.515 23.567 315.742 21.998 316.639 25.261C318.074 24.75 320.232 24.65 320.804 23.647C322.294 21.032 324.831 21.547 326.591 21.741C329.072 22.008 332.266 19.746 334.231 24.341C333.7 19.013 333.686 18.885 338.689 18.341C361.625 15.848 383.789 18.33 404.942 28.207C426.41 38.231 444.035 52.658 456.311 73.007C461.033 80.833 465.742 88.883 466.867 98.376C467.113 100.455 469.154 102.355 467.067 104.5C471.161 108.52 469.417 113.807 469.021 118.2C468.703 121.722 470.194 125.735 467.67 129.047C467.114 129.776 467.89 130.302 468.263 130.796C468.63 131.355 468.808 132.017 468.771 132.685C468.734 133.353 468.484 133.991 468.057 134.506C465.257 136.148 466.623 138.206 466.851 140.352C467.251 144.139 465.923 147.779 464.551 151.152C462.969 154.735 461.849 158.504 461.217 162.369C461.046 163.624 461.64 165.248 459.4 165.089C459.264 165.08 459.107 165.368 458.96 165.518C462.077 167.018 457.853 169.3 459.529 170.987C459.705 171.165 459.723 171.85 459.592 171.93C455.851 174.181 457.8 178.707 455.662 181.685C454.478 183.334 455.705 185.835 454.597 187.766C454.467 187.991 454.712 188.632 454.638 188.658C451.368 189.788 452.768 193.858 450.29 195.51C449.118 196.292 449.655 197.494 449.925 198.572C450.078 199.178 451.535 197.62 450.915 199.072C449.915 201.413 449.889 203.905 449.327 206.272C448.49 209.806 446.537 207.452 444.857 206.38C446.19 208.08 445.419 210.794 447.924 211.749C448.608 212.01 448.17 212.449 448.048 212.805C446.68 216.819 446.231 221.039 445.238 225.132C444.805 227.079 444.044 228.939 442.988 230.632C442.618 231.124 442.381 231.703 442.301 232.313C442.22 232.923 442.298 233.544 442.527 234.115C443.145 235.371 444.154 235.655 441.795 235.962C440.335 236.152 442.001 237.562 442.339 238.3C442.863 239.441 443.612 240.379 442.873 241.74C442.073 243.211 440.804 242.14 439.688 242.176C440.148 243.563 441.381 243.159 442.015 243.787C442.494 244.261 443.315 244.768 442.599 245.409C439.579 248.109 441.96 250.662 442.42 253.451C443.088 257.719 443.305 262.046 443.067 266.36C442.788 272.139 444.281 277.628 445.04 283.238C445.954 290.002 448.121 296.528 448.817 303.338C449.063 305.738 450.867 308.087 450.285 310.407C449.593 313.164 452.506 315.083 451.348 317.684C449.973 317.101 448.863 315.834 446.939 315.9C447.062 316.391 447.222 316.873 447.418 317.34C447.952 318.34 447.856 319.578 446.965 319.878C445.798 320.27 445.703 319.078 445.652 318.126C445.578 316.745 444.367 317.356 443.697 317.021C443.42 317.521 443.851 317.632 444.034 317.876C446.817 321.586 446.804 321.576 449.886 318.425C450.312 318.096 450.779 317.825 451.277 317.619V317.619ZM435.931 234.876C434.249 236.501 433.547 235.819 433.65 233.814C433.798 230.955 434.266 228.114 434.537 225.268C435.227 217.989 437.237 210.923 439.071 203.859C439.395 202.612 439.557 199.518 442.538 201.547C443.138 200.472 444.87 201.523 445.338 199.935C445.957 197.818 443.781 199.073 443.675 198.496C443.295 196.421 441.305 194.582 441.951 192.554C442.938 189.454 443.693 186.313 444.573 183.195C445.607 179.531 446.914 175.945 447.986 172.295C449.993 165.455 452.012 158.616 453.834 151.726C454.762 148.226 455.788 144.748 456.742 141.259C457.742 137.607 457.824 133.715 458.568 129.98C460.395 120.408 460.54 110.591 458.997 100.969C457.458 90.805 453.151 81.419 447.597 72.693C433.11 49.927 412.469 35.614 386.567 28.893C370.202 24.644 353.588 25.332 337.021 27.951C334.194 28.398 331.41 29.2089 331.548 24.3079C330.691 27.4929 329.156 28.3769 326.273 27.6689C324.48 27.2289 322.792 29.3369 320.729 28.7389C321.123 32.4699 318.045 29.96 316.863 30.872C316.613 31.065 316.163 30.999 315.916 31.194C314.016 32.716 313.402 31.5939 313.027 29.4539C313.002 33.1149 311.397 34.7019 308.067 34.5079C306.504 34.4169 304.721 35.771 304.574 36.45C304.093 38.67 302.313 39.035 300.907 39.472C298.239 40.3376 295.717 41.599 293.425 43.2139C290.001 45.4999 286.01 47.157 282.741 49.861C280.933 51.356 278.205 51.4519 276.831 52.7429C274.898 54.5589 271.918 54.976 270.676 57.556C270.604 57.705 270.021 57.7779 269.801 57.6559C268.592 56.9969 268.391 56.9369 268.164 58.3359C268.134 58.7877 267.954 59.2164 267.652 59.5541C267.351 59.8918 266.945 60.1191 266.5 60.1999C264.329 60.5269 263.093 62.8499 260.627 62.6539C260.055 62.6611 259.499 62.8369 259.027 63.1593C258.555 63.4816 258.189 63.9362 257.975 64.466C256.368 68.254 252.785 70.014 249.659 72.025C243.906 75.725 238.267 79.613 232.496 83.287C227.665 86.363 222.868 89.66 217.83 92.239C210.678 95.908 203.074 98.6167 195.214 100.295C177.183 104.144 159.494 103.719 142.182 97.352C131.282 93.344 120.693 88.486 109.294 85.944C104.007 84.766 98.5817 83.479 93.2387 84.381C82.6747 86.163 73.2387 90.808 64.5037 96.999C63.3157 97.842 62.1657 100.154 59.9137 98.288C59.2357 97.726 59.2197 98.867 59.0297 99.28C56.4937 104.78 51.4827 108.28 47.5297 112.487C44.3947 115.825 42.0388 119.635 39.4038 123.171C35.6698 128.183 33.2367 134.162 30.2297 139.718C30.1707 139.828 29.8937 139.818 29.9407 139.808C28.7067 139.239 30.7857 138.423 29.1537 137.627C29.5457 139.935 25.9107 141.347 28.4177 144.046C28.4995 144.601 28.3594 145.166 28.0278 145.618C27.6961 146.07 27.1996 146.374 26.6457 146.463C25.8897 146.577 24.4367 147.368 25.2997 148.755C26.0997 150.047 26.0557 153.013 24.9997 153.805C23.5607 154.888 23.5857 154.882 23.8997 156.411C24.0573 156.951 24.083 157.52 23.9747 158.072C22.3054 164.018 21.0922 170.082 20.3457 176.213C19.6697 180.72 18.1367 185.336 19.7847 189.905C21.3107 194.139 20.6207 198.462 20.8617 202.756C21.1877 208.584 19.7497 214.267 19.7617 220.09C19.7747 227.075 21.1037 233.933 21.2397 240.867C21.5147 254.838 27.5397 267.041 34.1617 278.543C39.0287 286.995 47.0137 293.543 54.9307 299.633C68.7117 310.233 83.0947 320.062 96.2357 331.493C108.507 342.168 120.644 352.993 131.882 364.775C143.582 377.041 155.668 389.006 165.671 402.742C180.199 422.803 195.827 442.044 212.485 460.375C229.22 478.695 248.967 493.369 270.737 505.417C300.856 522.084 332.8 526.939 366.5 521.189C378.876 519.077 391.079 516.424 402.228 510.005C430.763 493.576 445.228 467.518 452.328 436.689C457.183 415.616 455.875 394.225 453.09 372.963C451.99 364.551 451.861 356.001 449.628 347.74C448.176 342.37 447.948 336.74 445.971 331.449C445.264 329.556 446.338 326.872 445.411 325.215C443.727 322.204 443.319 318.859 441.973 315.815C440.908 313.403 441.895 310.557 440.817 308.352C438.671 303.965 438.381 299.173 437.117 294.609C434.403 284.827 434.041 274.657 432.501 264.679C431.892 260.736 432.35 256.786 432.241 252.842C432.041 245.53 433.141 241.283 435.76 236.448C435.907 235.922 435.959 235.374 435.913 234.83C436.813 235.654 437.213 237.358 439.019 236.553C441.245 235.559 439.025 234.367 439.172 233.284C439.272 232.548 439.783 231.659 438.354 231.707C437.33 231.741 436.645 231.974 436.787 233.252C436.851 233.58 436.801 233.919 436.645 234.215C436.489 234.51 436.237 234.744 435.931 234.876V234.876ZM418.367 503.066C424.262 498.247 430.335 493.583 433.787 486.508C429.063 492.401 423.909 497.936 418.367 503.066V503.066ZM463.367 124.548C463.708 123.525 464.426 124.155 465.196 124.2C466.285 124.265 466.991 123.465 467.114 122.284C467.183 121.618 467.414 120.819 466.523 120.637C464.932 120.313 465.723 121.861 465.26 122.454C464.587 123.309 463.687 123.088 462.86 123.299C462.377 123.422 462.269 123.938 462.434 124.399C462.572 124.77 462.887 124.829 463.367 124.548V124.548Z" fill="#10B981"/>
</g>
<defs>
<clipPath id="clip0_82_679">
<rect width="479" height="535" fill="white"/>
</clipPath>
</defs>
</svg>

<svg fill="none" height="535" viewBox="0 0 479 535" width="479" xmlns="http://www.w3.org/2000/svg" xmlns:xlink="http://www.w3.org/1999/xlink"><clipPath id="a"><path d="m0 0h479v535h-479z"/></clipPath><g clip-path="url(#a)"><path d="m451.277 317.619c.349.273 1.006.552 1 .819-.1 5.638 3.232 10.342 4.224 15.665 1.125 6.031 2.444 12.016 3.777 18 2.011 8.876 3.463 17.87 4.347 26.929.857 9.09 2.008 18.172 2.155 27.288.289 17.841-1.813 35.364-7.393 52.465-1.815 5.448-4.012 10.761-6.575 15.9-2.643 5.38-6.152 10.514-9.182 15.721-2.681 4.61-6.252 8.3-9.42 12.307-3.33 4.211-7.9 7.518-12.19 10.88-8.839 7.133-19.102 12.29-30.1 15.125-9.993 2.463-20.02 4.8-30.338 5.424-19.948 1.217-39.7-.134-58.9-5.872-27.117-8.1-51.3-21.773-73.586-39.142-27.445-21.389-48.658-48.443-69.407-75.853-16.83-22.016-35.483-42.576-55.763-61.462-19.1733-18.045-40.6523-33.064-61.4203-49.05-10.751-8.276-20.776-17.524-27.465-29.653-4.9665-8.933-7.83265-18.879-8.38095-29.085-.749-13.9-.487-27.8 1.912-41.574.184-1.054-.006-2.32 1.43495-2.772.1392-.039.2669-.111.3722-.21.1054-.099.1853-.222.2331-.359.0478-.136.062-.282.0414-.425-.0206-.144-.0754-.28-.1597-.397-3.02395-4.01-1.36195-8.533-1.14595-12.737.581-11.292 2.05095-22.492 5.71395-33.285.32-.942.3461-2.058 2.2301-2.395-1.04 7.906-4.2071 15.288-4.1441 23.182 3.992-21.965 11.324-42.516 25.107-60.944-2.143 1.282-5.591 5.7-7.295 8.849-2.834 5.242-5.9 10.366-8.527 15.711-1.573 3.2-2.424 6.756-3.737 10.1-.312.793-.326 2.466-1.707 2.009-1.306-.432-.635-1.808-.259-2.662 3.175-7.21 5.75-14.685 9.592-21.6 6.723-12.1 15.3-22.587 26.517-30.833 8.4112-6.3989 17.9927-11.0906 28.205-13.811 13.89-3.565 26.7873-.521 39.9243 3.1 10.907 3.007 20.883 8.609 31.962 11.084 9.85 2.2 19.657 1.758 29.623.54 13.625-1.665 25.452-7.36 36.691-14.693 4.921-3.211 9.677-6.674 14.549-9.962 1.379-.93 2.759-2.659 4.607-.569.09.0732.196.1247.31.1504.113.0257.231.0249.345-.0022.113-.0272.218-.08.308-.1545.089-.0744.16-.1684.208-.2747.612-1.658-.687-.149-1.026-.565-1.113-1.363.148-1.8091.845-2.3151 4.374-3.172 8.794-6.2809 13.2-9.4109 11.396-8.3039 23.356-15.8056 35.793-22.4511 4.535-2.355 9.006-5.0849 14.065-5.9769 1.351-.238 4.041-2.278 5.17.96.406-.2974.742-.6795.986-1.1198.243-.4403.388-.9283.425-1.4302.222-1.257 1.139-2.1431 2.376-1.3491 1 .641 1.373.2691 1.91-.3899 1.2-1.476 2.427-3.045 3.324.218 1.435-.511 3.593-.611 4.165-1.614 1.49-2.615 4.027-2.1 5.787-1.906 2.481.267 5.675-1.995 7.64 2.6-.531-5.328-.545-5.456 4.458-6 22.936-2.493 45.1-.011 66.253 9.866 21.468 10.024 39.093 24.451 51.369 44.8 4.722 7.826 9.431 15.876 10.556 25.369.246 2.079 2.287 3.979.2 6.124 4.094 4.02 2.35 9.307 1.954 13.7-.318 3.522 1.173 7.535-1.351 10.847-.556.729.22 1.255.593 1.749.367.559.545 1.221.508 1.889s-.287 1.306-.714 1.821c-2.8 1.642-1.434 3.7-1.206 5.846.4 3.787-.928 7.427-2.3 10.8-1.582 3.583-2.702 7.352-3.334 11.217-.171 1.255.423 2.879-1.817 2.72-.136-.009-.293.279-.44.429 3.117 1.5-1.107 3.782.569 5.469.176.178.194.863.063.943-3.741 2.251-1.792 6.777-3.93 9.755-1.184 1.649.043 4.15-1.065 6.081-.13.225.115.866.041.892-3.27 1.13-1.87 5.2-4.348 6.852-1.172.782-.635 1.984-.365 3.062.153.606 1.61-.952.99.5-1 2.341-1.026 4.833-1.588 7.2-.837 3.534-2.79 1.18-4.47.108 1.333 1.7.562 4.414 3.067 5.369.684.261.246.7.124 1.056-1.368 4.014-1.817 8.234-2.81 12.327-.433 1.947-1.194 3.807-2.25 5.5-.37.492-.607 1.071-.687 1.681-.081.61-.003 1.231.226 1.802.618 1.256 1.627 1.54-.732 1.847-1.46.19.206 1.6.544 2.338.524 1.141 1.273 2.079.534 3.44-.8 1.471-2.069.4-3.185.436.46 1.387 1.693.983 2.327 1.611.479.474 1.3.981.584 1.622-3.02 2.7-.639 5.253-.179 8.042.668 4.268.885 8.595.647 12.909-.279 5.779 1.214 11.268 1.973 16.878.914 6.764 3.081 13.29 3.777 20.1.246 2.4 2.05 4.749 1.468 7.069-.692 2.757 2.221 4.676 1.063 7.277-1.375-.583-2.485-1.85-4.409-1.784.123.491.283.973.479 1.44.534 1 .438 2.238-.453 2.538-1.167.392-1.262-.8-1.313-1.752-.074-1.381-1.285-.77-1.955-1.105-.277.5.154.611.337.855 2.783 3.71 2.77 3.7 5.852.549.426-.329.893-.6 1.391-.806zm-15.346-82.743c-1.682 1.625-2.384.943-2.281-1.062.148-2.859.616-5.7.887-8.546.69-7.279 2.7-14.345 4.534-21.409.324-1.247.486-4.341 3.467-2.312.6-1.075 2.332-.024 2.8-1.612.619-2.117-1.557-.862-1.663-1.439-.38-2.075-2.37-3.914-1.724-5.942.987-3.1 1.742-6.241 2.622-9.359 1.034-3.664 2.341-7.25 3.413-10.9 2.007-6.84 4.026-13.679 5.848-20.569.928-3.5 1.954-6.978 2.908-10.467 1-3.652 1.082-7.544 1.826-11.279 1.827-9.572 1.972-19.389.429-29.011-1.539-10.164-5.846-19.55-11.4-28.276-14.487-22.766-35.128-37.079-61.03-43.8-16.365-4.249-32.979-3.561-49.546-.942-2.827.447-5.611 1.2579-5.473-3.6431-.857 3.185-2.392 4.069-5.275 3.361-1.793-.44-3.481 1.668-5.544 1.07.394 3.731-2.684 1.2211-3.866 2.1331-.25.193-.7.127-.947.322-1.9 1.522-2.514.3999-2.889-1.7401-.025 3.661-1.63 5.248-4.96 5.054-1.563-.091-3.346 1.2631-3.493 1.9421-.481 2.22-2.261 2.585-3.667 3.022-2.668.8656-5.19 2.127-7.482 3.7419-3.424 2.286-7.415 3.9431-10.684 6.6471-1.808 1.495-4.536 1.5909-5.91 2.8819-1.933 1.816-4.913 2.2331-6.155 4.8131-.072.149-.655.2219-.875.0999-1.209-.659-1.41-.719-1.637.68-.03.4518-.21.8805-.512 1.2182-.301.3377-.707.565-1.152.6458-2.171.327-3.407 2.65-5.873 2.454-.572.0072-1.128.183-1.6.5054-.472.3223-.838.7769-1.052 1.3067-1.607 3.788-5.19 5.548-8.316 7.559-5.753 3.7-11.392 7.588-17.163 11.262-4.831 3.076-9.628 6.373-14.666 8.952-7.152 3.669-14.756 6.3777-22.616 8.056-18.031 3.849-35.72 3.424-53.032-2.943-10.9-4.008-21.489-8.866-32.888-11.408-5.287-1.178-10.7123-2.465-16.0553-1.563-10.564 1.782-20 6.427-28.735 12.618-1.188.843-2.338 3.155-4.59 1.289-.678-.562-.694.579-.884.992-2.536 5.5-7.547 9-11.5 13.207-3.135 3.338-5.4909 7.148-8.1259 10.684-3.734 5.012-6.1671 10.991-9.1741 16.547-.059.11-.336.1-.289.09-1.234-.569.845-1.385-.787-2.181.392 2.308-3.243 3.72-.736 6.419.0818.555-.0583 1.12-.3899 1.572-.3317.452-.8282.756-1.3821.845-.756.114-2.209.905-1.346 2.292.8 1.292.756 4.258-.3 5.05-1.439 1.083-1.414 1.077-1.1 2.606.1576.54.1833 1.109.075 1.661-1.6693 5.946-2.8825 12.01-3.629 18.141-.676 4.507-2.209 9.123-.561 13.692 1.526 4.234.836 8.557 1.077 12.851.326 5.828-1.112 11.511-1.1 17.334.013 6.985 1.342 13.843 1.478 20.777.275 13.971 6.3 26.174 12.922 37.676 4.867 8.452 12.852 15 20.769 21.09 13.781 10.6 28.164 20.429 41.305 31.86 12.2713 10.675 24.4083 21.5 35.6463 33.282 11.7 12.266 23.786 24.231 33.789 37.967 14.528 20.061 30.156 39.302 46.814 57.633 16.735 18.32 36.482 32.994 58.252 45.042 30.119 16.667 62.063 21.522 95.763 15.772 12.376-2.112 24.579-4.765 35.728-11.184 28.535-16.429 43-42.487 50.1-73.316 4.855-21.073 3.547-42.464.762-63.726-1.1-8.412-1.229-16.962-3.462-25.223-1.452-5.37-1.68-11-3.657-16.291-.707-1.893.367-4.577-.56-6.234-1.684-3.011-2.092-6.356-3.438-9.4-1.065-2.412-.078-5.258-1.156-7.463-2.146-4.387-2.436-9.179-3.7-13.743-2.714-9.782-3.076-19.952-4.616-29.93-.609-3.943-.151-7.893-.26-11.837-.2-7.312.9-11.559 3.519-16.394.147-.526.199-1.074.153-1.618.9.824 1.3 2.528 3.106 1.723 2.226-.994.006-2.186.153-3.269.1-.736.611-1.625-.818-1.577-1.024.034-1.709.267-1.567 1.545.064.328.014.667-.142.963-.156.295-.408.529-.714.661zm-17.564 268.19c5.895-4.819 11.968-9.483 15.42-16.558-4.724 5.893-9.878 11.428-15.42 16.558zm45-378.518c.341-1.023 1.059-.393 1.829-.348 1.089.065 1.795-.735 1.918-1.916.069-.666.3-1.465-.591-1.647-1.591-.324-.8 1.224-1.263 1.817-.673.855-1.573.634-2.4.845-.483.123-.591.639-.426 1.1.138.371.453.43.933.149z" fill="#10b981"/></g></svg>
